src/images/install-now-free-1.svg

<svg fill="none" viewBox="0 0 1289 520"><g clip-path="url(#clip0)"><path fill="#fff" d="M0 0h1289v520H0z"/><path fill="#35416B" fill-rule="evenodd" stroke="#F96132" stroke-linecap="round" stroke-linejoin="round" stroke-width="2.75" d="M176.811 214.554l153.525 23.674c8.916 0 16.151 6.465 16.151 14.445v164.96c0 7.98-7.235 14.437-16.151 14.437H147.181c-8.924 0-16.159-6.457-16.159-14.437V252.656c-.008-7.963 36.872-38.102 45.789-38.102zm252.603-.433l148.538 21.743c8.925 0 16.151 6.474 16.151 14.471v165.359c0 7.988-7.226 14.47-16.151 14.47H394.798c-8.916 0-16.151-6.482-16.151-14.47V250.335c.017-7.997 41.842-36.214 50.767-36.214zm244.561 3.753l160.127 22.875c9.158 0 16.518 6.332 16.518 14.146v161.606c0 7.805-7.393 14.146-16.518 14.146H646.785c-9.157 0-16.517-6.341-16.517-14.146V254.895c-.033-7.814 34.583-37.021 43.707-37.021zm253.311-1.074l157.964 25.588c9.09 0 16.47 6.374 16.47 14.238v162.662c0 7.864-7.38 14.238-16.47 14.238H898.473c-9.1 0-16.476-6.374-16.476-14.238V256.626c-.016-7.864 36.182-39.826 45.289-39.826z" clip-rule="evenodd"/><path fill="#F96132" fill-rule="evenodd" stroke="#F96132" stroke-linecap="round" stroke-linejoin="round" stroke-width="2.75" d="M179.824 214.462h183.155a16.167 16.167 0 0111.421 4.734 16.147 16.147 0 014.73 11.418v184.473a16.15 16.15 0 01-16.151 16.143H179.824a16.145 16.145 0 01-14.923-9.964 16.12 16.12 0 01-1.227-6.179V230.614a16.1 16.1 0 011.227-6.18 16.158 16.158 0 0114.923-9.972v0zm251.097-.491h183.155a16.155 16.155 0 0111.426 4.731 16.156 16.156 0 014.733 11.421v184.472a16.149 16.149 0 01-4.739 11.41 16.161 16.161 0 01-11.42 4.725H430.921a16.163 16.163 0 01-11.41-4.731 16.15 16.15 0 01-4.733-11.404V230.123a16.15 16.15 0 014.727-11.415 16.165 16.165 0 0111.416-4.737v0zm251.746 2.755h183.154a16.16 16.16 0 0111.418 4.73 16.145 16.145 0 014.733 11.413V417.35a16.144 16.144 0 01-4.733 11.412 16.161 16.161 0 01-11.418 4.731H682.667a16.144 16.144 0 01-16.151-16.143V232.869a16.151 16.151 0 014.73-11.415 16.175 16.175 0 015.24-3.5 16.165 16.165 0 016.181-1.228zm251.488.1h183.155a16.143 16.143 0 0111.42 4.725 15.98 15.98 0 013.51 5.238 16.177 16.177 0 011.23 6.18v184.447c0 4.284-1.7 8.392-4.73 11.421a16.181 16.181 0 01-11.43 4.731H934.155a16.166 16.166 0 01-11.427-4.731 16.15 16.15 0 01-4.733-11.421V232.969a16.132 16.132 0 014.734-11.418 16.154 16.154 0 0111.426-4.725z" clip-rule="evenodd"/><path fill="#F96132" fill-rule="evenodd" d="M1.923 430.272l1285.167 3.62z" clip-rule="evenodd"/><path stroke="#F96132" stroke-linecap="round" stroke-linejoin="round" stroke-width="4.61" d="M1.923 430.272l1285.167 3.62"/><path fill="#F96132" fill-rule="evenodd" stroke="#F96132" stroke-linecap="round" stroke-linejoin="round" stroke-width="2.75" d="M214.973 475.382l39.961 5.758c8.825 1.273 15.685-1.165 14.411 7.664l-.915 11.824a16.143 16.143 0 01-6.324 10.629 16.152 16.152 0 01-11.992 3.043l-39.961-5.758a16.171 16.171 0 01-10.631-6.323 16.154 16.154 0 01-3.047-11.984l1.016-11.3c1.282-8.821 8.674-4.835 17.482-3.553z" clip-rule="evenodd"/><path stroke="#F96132" stroke-linecap="round" stroke-linejoin="round" stroke-width="6.22" d="M134.452 428.484s-15.56-13.797-27.015-4.91c-12.421 9.653-23.086 22.717-13.587 35.448 7.168 9.62 47.812-7.705 65.977 3.836a312.03 312.03 0 0046.155 23.716"/><path fill="#fff" fill-rule="evenodd" stroke="#F96132" stroke-linecap="round" stroke-linejoin="round" stroke-width="2.75" d="M215.481 464.564l39.961 5.767a16.156 16.156 0 0113.679 18.306l-.175 1.207a16.143 16.143 0 01-6.324 10.629 16.17 16.17 0 01-11.992 3.043l-39.961-5.767a16.162 16.162 0 01-13.349-12.011 16.154 16.154 0 01-.329-6.296l.175-1.206a16.143 16.143 0 016.324-10.629 16.164 16.164 0 0111.991-3.043v0z" clip-rule="evenodd"/><path fill="#F96132" fill-rule="evenodd" d="M221.634 497.791l5.353-30.498z" clip-rule="evenodd"/><path stroke="#F96132" stroke-linecap="round" stroke-linejoin="round" stroke-width="2.75" d="M221.634 497.791l5.353-30.498"/><path fill="#F96132" fill-rule="evenodd" d="M199.156 477.753l24.934 3.853z" clip-rule="evenodd"/><path stroke="#F96132" stroke-linecap="round" stroke-linejoin="round" stroke-width="2.75" d="M199.156 477.753l24.934 3.853"/><path fill="#F96132" d="M492.987 120h5.032V87.589h-5.032V120zm10.422 0h4.852v-13.769c0-3.683 2.201-6.154 5.615-6.154 3.369 0 5.031 1.999 5.031 5.548V120h4.874v-15.296c0-5.435-2.987-8.782-8.176-8.782-3.571 0-5.997 1.617-7.232 4.02h-.112v-3.57h-4.852V120zm33.916.472c5.571 0 9.613-2.965 9.613-7.278v-.022c0-3.392-1.841-5.301-6.67-6.424l-3.841-.876c-2.538-.606-3.504-1.595-3.504-3.055v-.022c0-1.887 1.639-3.122 4.245-3.122 2.74 0 4.357 1.437 4.649 3.504l.023.157h4.559l-.022-.27c-.247-4.02-3.616-7.142-9.209-7.142-5.436 0-9.119 2.897-9.119 7.12v.022c0 3.437 2.223 5.593 6.716 6.626l3.863.876c2.538.607 3.392 1.483 3.392 3.01v.023c0 1.909-1.752 3.122-4.672 3.122-2.988 0-4.605-1.281-5.054-3.459l-.045-.225h-4.807l.023.202c.494 4.313 3.953 7.233 9.86 7.233zm21.675 0c.988 0 1.909-.113 2.471-.202v-3.751c-.36.044-.786.089-1.303.089-2.044 0-3.122-.718-3.122-3.122v-13.252h4.425v-3.863h-4.425v-6.154h-4.964v6.154h-3.392v3.863h3.392v13.544c0 4.717 2.246 6.694 6.918 6.694zm13.072-.045c3.122 0 5.863-1.617 7.233-4.156h.09V120h4.874v-16.284c0-4.74-3.662-7.794-9.434-7.794-5.817 0-9.344 3.122-9.681 7.187l-.022.247h4.582l.045-.202c.404-1.886 2.134-3.212 4.941-3.212 3.01 0 4.695 1.573 4.695 4.178v1.775l-6.424.381c-5.593.337-8.783 2.853-8.783 6.963v.045c0 4.245 3.167 7.143 7.884 7.143zm-2.987-7.255v-.045c0-1.999 1.617-3.279 4.537-3.459l5.773-.359v1.841c0 3.078-2.583 5.391-5.998 5.391-2.605 0-4.312-1.303-4.312-3.369zm20.08 6.828h4.852V87.589h-4.852V120zm10.018 0h4.851V87.589h-4.851V120zm19.181 0h4.852v-13.769c0-3.683 2.201-6.154 5.615-6.154 3.369 0 5.031 1.999 5.031 5.548V120h4.874v-15.296c0-5.435-2.987-8.782-8.175-8.782-3.572 0-5.998 1.617-7.233 4.02h-.112v-3.57h-4.852V120zm35.219.472c6.761 0 11.208-4.672 11.208-12.286v-.045c0-7.57-4.492-12.22-11.23-12.22-6.716 0-11.186 4.673-11.186 12.22v.045c0 7.591 4.425 12.286 11.208 12.286zm.022-4.066c-3.795 0-6.266-2.987-6.266-8.22v-.045c0-5.166 2.493-8.154 6.222-8.154 3.795 0 6.266 2.988 6.266 8.154v.045c0 5.21-2.426 8.22-6.222 8.22zM673.102 120h5.008l4.919-17.699h.113L688.105 120h5.054l6.469-23.629h-4.807l-4.312 18.598h-.113l-4.941-18.598h-4.672l-4.919 18.598h-.09l-4.312-18.598h-4.852L673.102 120zm25.336 6.514h3.414l3.279-11.5h-4.852l-1.841 11.5zM718.63 120h6.558v-19.137h4.627v-4.941h-4.784v-1.685c0-1.73.966-2.65 3.145-2.65.606 0 1.235.022 1.684.112v-4.335c-.763-.157-2.089-.27-3.301-.27-5.683 0-7.929 2.18-7.929 6.896v1.932h-3.279v4.941h3.279V120zm14.644 0h6.559v-13.566c0-3.392 1.887-5.346 5.121-5.346.943 0 1.842.135 2.381.359v-5.772a7.395 7.395 0 00-1.887-.247c-2.852 0-4.896 1.684-5.593 4.604h-.134v-4.11h-6.447V120zm26.909.494c6.873 0 10.197-4.065 10.938-7.614l.067-.247h-6.019l-.045.135c-.472 1.347-2.111 2.83-4.807 2.83-3.346 0-5.435-2.246-5.503-6.087h16.577v-2.022c0-7.277-4.425-12.061-11.478-12.061s-11.567 4.896-11.567 12.555v.023c0 7.704 4.469 12.488 11.837 12.488zm-.158-20.17c2.718 0 4.672 1.73 5.077 5.054h-10.22c.427-3.257 2.448-5.054 5.143-5.054zm25.718 20.17c6.873 0 10.197-4.065 10.939-7.614l.067-.247h-6.02l-.044.135c-.472 1.347-2.112 2.83-4.807 2.83-3.347 0-5.436-2.246-5.503-6.087h16.576v-2.022c0-7.277-4.425-12.061-11.477-12.061-7.053 0-11.568 4.896-11.568 12.555v.023c0 7.704 4.47 12.488 11.837 12.488zm-.157-20.17c2.718 0 4.672 1.73 5.076 5.054h-10.22c.427-3.257 2.449-5.054 5.144-5.054z"/></g><defs><clipPath id="clip0"><path fill="#fff" d="M0 0h1289v520H0z"/></clipPath></defs></svg>

<svg xmlns="http://www.w3.org/2000/svg" width="1289" height="520" fill="none" viewBox="0 0 1289 520"><g clip-path="url(#clip0)"><rect width="1289" height="520" fill="#fff"/><path fill="#35416B" fill-rule="evenodd" stroke="#F96132" stroke-linecap="round" stroke-linejoin="round" stroke-width="2.75" d="M176.811 214.554L330.336 238.228C339.252 238.228 346.487 244.693 346.487 252.673V417.633C346.487 425.613 339.252 432.07 330.336 432.07H147.181C138.257 432.07 131.022 425.613 131.022 417.633V252.656C131.014 244.693 167.894 214.554 176.811 214.554Z" clip-rule="evenodd"/><path fill="#35416B" fill-rule="evenodd" stroke="#F96132" stroke-linecap="round" stroke-linejoin="round" stroke-width="2.75" d="M429.414 214.121L577.952 235.864C586.877 235.864 594.103 242.338 594.103 250.335V415.694C594.103 423.682 586.877 430.164 577.952 430.164H394.798C385.882 430.164 378.647 423.682 378.647 415.694V250.335C378.664 242.338 420.489 214.121 429.414 214.121Z" clip-rule="evenodd"/><path fill="#35416B" fill-rule="evenodd" stroke="#F96132" stroke-linecap="round" stroke-linejoin="round" stroke-width="2.75" d="M673.975 217.874L834.102 240.749C843.26 240.749 850.62 247.081 850.62 254.895V416.501C850.62 424.306 843.227 430.647 834.102 430.647H646.785C637.628 430.647 630.268 424.306 630.268 416.501V254.895C630.235 247.081 664.851 217.874 673.975 217.874Z" clip-rule="evenodd"/><path fill="#35416B" fill-rule="evenodd" stroke="#F96132" stroke-linecap="round" stroke-linejoin="round" stroke-width="2.75" d="M927.286 216.8L1085.25 242.388C1094.34 242.388 1101.72 248.762 1101.72 256.626V419.288C1101.72 427.152 1094.34 433.526 1085.25 433.526H898.473C889.373 433.526 881.997 427.152 881.997 419.288V256.626C881.981 248.762 918.179 216.8 927.286 216.8Z" clip-rule="evenodd"/><path fill="#F96132" fill-rule="evenodd" stroke="#F96132" stroke-linecap="round" stroke-linejoin="round" stroke-width="2.75" d="M179.824 214.462H362.979C367.263 214.465 371.371 216.167 374.4 219.196C377.429 222.225 379.13 226.332 379.13 230.614V415.087C379.13 419.368 377.428 423.474 374.399 426.501C371.371 429.529 367.263 431.23 362.979 431.23H179.824C177.703 431.231 175.603 430.814 173.643 430.003C171.683 429.192 169.902 428.003 168.402 426.504C166.902 425.005 165.712 423.225 164.901 421.266C164.09 419.306 163.672 417.207 163.674 415.087V230.614C163.672 228.493 164.089 226.393 164.901 224.434C165.712 222.474 166.901 220.693 168.401 219.194C169.901 217.694 171.682 216.504 173.642 215.692C175.602 214.88 177.703 214.462 179.824 214.462V214.462Z" clip-rule="evenodd"/><path fill="#F96132" fill-rule="evenodd" stroke="#F96132" stroke-linecap="round" stroke-linejoin="round" stroke-width="2.75" d="M430.921 213.971H614.076C616.198 213.971 618.299 214.389 620.259 215.201C622.22 216.012 624.001 217.202 625.502 218.702C627.002 220.202 628.193 221.982 629.005 223.942C629.817 225.901 630.235 228.002 630.235 230.123V414.595C630.23 418.876 628.526 422.98 625.496 426.005C622.466 429.031 618.358 430.73 614.076 430.73H430.921C426.641 430.726 422.538 429.024 419.511 425.999C416.485 422.975 414.783 418.873 414.778 414.595V230.123C414.778 225.842 416.479 221.736 419.505 218.708C422.532 215.679 426.638 213.976 430.921 213.971V213.971Z" clip-rule="evenodd"/><path fill="#F96132" fill-rule="evenodd" stroke="#F96132" stroke-linecap="round" stroke-linejoin="round" stroke-width="2.75" d="M682.667 216.726H865.821C870.104 216.728 874.211 218.429 877.239 221.456C880.268 224.483 881.97 228.588 881.972 232.869V417.35C881.97 421.63 880.268 425.735 877.239 428.762C874.211 431.789 870.104 433.491 865.821 433.493H682.667C678.383 433.493 674.275 431.792 671.246 428.765C668.218 425.737 666.516 421.631 666.516 417.35V232.869C666.516 230.749 666.934 228.65 667.745 226.691C668.557 224.732 669.747 222.953 671.246 221.454C672.746 219.955 674.527 218.766 676.486 217.954C678.446 217.143 680.546 216.726 682.667 216.726Z" clip-rule="evenodd"/><path fill="#F96132" fill-rule="evenodd" stroke="#F96132" stroke-linecap="round" stroke-linejoin="round" stroke-width="2.75" d="M934.155 216.826H1117.31C1119.43 216.825 1121.53 217.241 1123.49 218.052C1125.45 218.863 1127.23 220.052 1128.73 221.551C1130.24 223.05 1131.43 224.83 1132.24 226.789C1133.05 228.748 1133.47 230.848 1133.47 232.969V417.416C1133.47 421.7 1131.77 425.808 1128.74 428.837C1125.71 431.866 1121.59 433.568 1117.31 433.568H934.155C929.869 433.568 925.759 431.866 922.728 428.837C919.698 425.808 917.995 421.7 917.995 417.416V232.969C917.995 230.848 918.413 228.748 919.226 226.789C920.038 224.83 921.228 223.05 922.729 221.551C924.229 220.052 926.011 218.863 927.971 218.052C929.932 217.241 932.033 216.825 934.155 216.826Z" clip-rule="evenodd"/><path fill="#F96132" fill-rule="evenodd" d="M1.9231 430.272L1287.09 433.892Z" clip-rule="evenodd"/><path stroke="#F96132" stroke-linecap="round" stroke-linejoin="round" stroke-width="4.61" d="M1.9231 430.272L1287.09 433.892"/><path fill="#F96132" fill-rule="evenodd" stroke="#F96132" stroke-linecap="round" stroke-linejoin="round" stroke-width="2.75" d="M214.973 475.382L254.934 481.14C263.759 482.413 270.619 479.975 269.345 488.804L268.43 500.628C268.126 502.728 267.411 504.748 266.326 506.571C265.241 508.395 263.807 509.987 262.106 511.257C260.405 512.527 258.471 513.449 256.413 513.971C254.355 514.493 252.215 514.605 250.114 514.3L210.153 508.542C205.911 507.926 202.087 505.652 199.522 502.219C196.957 498.786 195.861 494.475 196.475 490.235L197.491 478.935C198.773 470.114 206.165 474.1 214.973 475.382Z" clip-rule="evenodd"/><path stroke="#F96132" stroke-linecap="round" stroke-linejoin="round" stroke-width="6.22" d="M134.452 428.484C134.452 428.484 118.892 414.687 107.437 423.574C95.0155 433.227 84.3509 446.291 93.85 459.022C101.018 468.642 141.662 451.317 159.827 462.858C174.527 472.031 189.965 479.964 205.982 486.574"/><path fill="#fff" fill-rule="evenodd" stroke="#F96132" stroke-linecap="round" stroke-linejoin="round" stroke-width="2.75" d="M215.481 464.564L255.442 470.331C257.543 470.635 259.564 471.349 261.388 472.434C263.213 473.518 264.806 474.951 266.076 476.651C267.347 478.351 268.269 480.285 268.792 482.342C269.314 484.398 269.426 486.538 269.121 488.637L268.946 489.844C268.642 491.944 267.927 493.964 266.842 495.787C265.757 497.611 264.323 499.203 262.622 500.473C260.921 501.742 258.987 502.665 256.929 503.187C254.872 503.709 252.731 503.821 250.63 503.516L210.669 497.749C208.568 497.445 206.548 496.731 204.723 495.646C202.899 494.562 201.306 493.129 200.035 491.428C198.765 489.728 197.842 487.795 197.32 485.738C196.798 483.682 196.686 481.542 196.991 479.442L197.166 478.236C197.47 476.136 198.185 474.116 199.27 472.293C200.355 470.469 201.789 468.877 203.49 467.607C205.19 466.337 207.125 465.415 209.183 464.893C211.24 464.371 213.38 464.259 215.481 464.564V464.564Z" clip-rule="evenodd"/><path fill="#F96132" fill-rule="evenodd" d="M221.634 497.791L226.987 467.293Z" clip-rule="evenodd"/><path stroke="#F96132" stroke-linecap="round" stroke-linejoin="round" stroke-width="2.75" d="M221.634 497.791L226.987 467.293"/><path fill="#F96132" fill-rule="evenodd" d="M199.156 477.753L224.09 481.606Z" clip-rule="evenodd"/><path stroke="#F96132" stroke-linecap="round" stroke-linejoin="round" stroke-width="2.75" d="M199.156 477.753L224.09 481.606"/><path fill="#F96132" d="M492.987 120H498.019V87.5889H492.987V120ZM503.409 120H508.261V106.231C508.261 102.548 510.462 100.077 513.876 100.077C517.245 100.077 518.907 102.076 518.907 105.625V120H523.781V104.704C523.781 99.2686 520.794 95.9219 515.605 95.9219C512.034 95.9219 509.608 97.5391 508.373 99.9424H508.261V96.3711H503.409V120ZM537.325 120.472C542.896 120.472 546.938 117.507 546.938 113.194V113.172C546.938 109.78 545.097 107.871 540.268 106.748L536.427 105.872C533.889 105.266 532.923 104.277 532.923 102.817V102.795C532.923 100.908 534.562 99.6729 537.168 99.6729C539.908 99.6729 541.525 101.11 541.817 103.177L541.84 103.334H546.399L546.377 103.064C546.13 99.0439 542.761 95.9219 537.168 95.9219C531.732 95.9219 528.049 98.8193 528.049 103.042V103.064C528.049 106.501 530.272 108.657 534.765 109.69L538.628 110.566C541.166 111.173 542.02 112.049 542.02 113.576V113.599C542.02 115.508 540.268 116.721 537.348 116.721C534.36 116.721 532.743 115.44 532.294 113.262L532.249 113.037H527.442L527.465 113.239C527.959 117.552 531.418 120.472 537.325 120.472ZM559 120.472C559.988 120.472 560.909 120.359 561.471 120.27V116.519C561.111 116.563 560.685 116.608 560.168 116.608C558.124 116.608 557.046 115.89 557.046 113.486V100.234H561.471V96.3711H557.046V90.2168H552.082V96.3711H548.69V100.234H552.082V113.778C552.082 118.495 554.328 120.472 559 120.472ZM572.072 120.427C575.194 120.427 577.935 118.81 579.305 116.271H579.395V120H584.269V103.716C584.269 98.9766 580.607 95.9219 574.835 95.9219C569.018 95.9219 565.491 99.0439 565.154 103.109L565.132 103.356H569.714L569.759 103.154C570.163 101.268 571.893 99.9424 574.7 99.9424C577.71 99.9424 579.395 101.515 579.395 104.12V105.895L572.971 106.276C567.378 106.613 564.188 109.129 564.188 113.239V113.284C564.188 117.529 567.355 120.427 572.072 120.427ZM569.085 113.172V113.127C569.085 111.128 570.702 109.848 573.622 109.668L579.395 109.309V111.15C579.395 114.228 576.812 116.541 573.397 116.541C570.792 116.541 569.085 115.238 569.085 113.172ZM589.165 120H594.017V87.5889H589.165V120ZM599.183 120H604.034V87.5889H599.183V120ZM618.364 120H623.216V106.231C623.216 102.548 625.417 100.077 628.831 100.077C632.2 100.077 633.862 102.076 633.862 105.625V120H638.736V104.704C638.736 99.2686 635.749 95.9219 630.561 95.9219C626.989 95.9219 624.563 97.5391 623.328 99.9424H623.216V96.3711H618.364V120ZM653.583 120.472C660.344 120.472 664.791 115.8 664.791 108.186V108.141C664.791 100.571 660.299 95.9219 653.561 95.9219C646.845 95.9219 642.375 100.594 642.375 108.141V108.186C642.375 115.777 646.8 120.472 653.583 120.472ZM653.605 116.406C649.81 116.406 647.339 113.419 647.339 108.186V108.141C647.339 102.975 649.832 99.9873 653.561 99.9873C657.356 99.9873 659.827 102.975 659.827 108.141V108.186C659.827 113.396 657.401 116.406 653.605 116.406ZM673.102 120H678.11L683.029 102.301H683.142L688.105 120H693.159L699.628 96.3711H694.821L690.509 114.969H690.396L685.455 96.3711H680.783L675.864 114.969H675.774L671.462 96.3711H666.61L673.102 120ZM698.438 126.514H701.852L705.131 115.014H700.279L698.438 126.514ZM718.63 120H725.188V100.863H729.815V95.9219H725.031V94.2373C725.031 92.5078 725.997 91.5869 728.176 91.5869C728.782 91.5869 729.411 91.6094 729.86 91.6992V87.3643C729.097 87.207 727.771 87.0947 726.559 87.0947C720.876 87.0947 718.63 89.2734 718.63 93.9902V95.9219H715.351V100.863H718.63V120ZM733.274 120H739.833V106.434C739.833 103.042 741.72 101.088 744.954 101.088C745.897 101.088 746.796 101.223 747.335 101.447V95.6748C746.841 95.54 746.167 95.4277 745.448 95.4277C742.596 95.4277 740.552 97.1123 739.855 100.032H739.721V95.9219H733.274V120ZM760.183 120.494C767.056 120.494 770.38 116.429 771.121 112.88L771.188 112.633H765.169L765.124 112.768C764.652 114.115 763.013 115.598 760.317 115.598C756.971 115.598 754.882 113.352 754.814 109.511H771.391V107.489C771.391 100.212 766.966 95.4277 759.913 95.4277C752.86 95.4277 748.346 100.324 748.346 107.983V108.006C748.346 115.71 752.815 120.494 760.183 120.494ZM760.025 100.324C762.743 100.324 764.697 102.054 765.102 105.378H754.882C755.309 102.121 757.33 100.324 760.025 100.324ZM785.743 120.494C792.616 120.494 795.94 116.429 796.682 112.88L796.749 112.633H790.729L790.685 112.768C790.213 114.115 788.573 115.598 785.878 115.598C782.531 115.598 780.442 113.352 780.375 109.511H796.951V107.489C796.951 100.212 792.526 95.4277 785.474 95.4277C778.421 95.4277 773.906 100.324 773.906 107.983V108.006C773.906 115.71 778.376 120.494 785.743 120.494ZM785.586 100.324C788.304 100.324 790.258 102.054 790.662 105.378H780.442C780.869 102.121 782.891 100.324 785.586 100.324Z"/></g><defs><clipPath id="clip0"><rect width="1289" height="520" fill="#fff"/></clipPath></defs></svg>
